X:1
T:Title
%%score ( 1 2 ) { 3 | 4 }
L:1/8
Q:1/4=90
M:4/4
K:G
V:1 treble nm="Drawbar Organ, Soprano"
V:2 treble 
V:3 bass nm="Church Organ, Go Ye to the Land"
V:4 bass 
V:1
 [EG][EG] [DG]2 [GB]>[Ac] [Bd]2 | [GB][DG] [FA]2 [Fd][FAc] [GB]2 | z4 z2 .E2 | %3
w: By~W.~D. * * * * *|||
 [DG][EA] [DB]2 [FB]>[FA] G2 | [EG][EG] [DG]2 [GB]>[Ac] [Bd]2 | [GB][DG] [FA]2 [Fd][FAc] [GB]2 | %6
w: |||
 z4 z2 .E2 | [DG][EA] [DB]2 [FB]>[FA] G2 | [FA][FA] [FA]2 [Fd]>[Ge] [Af]2 | %9
w: |||
 [Fd][Fd] [Ge]2 [Ge]>[Fd] [E^c]2 | [EA][EA] [Fd]2 [FA][FA] [GB]2 | [Fd][Ge] [Af]2 [Af]>[Ae] [Fd]2 | %12
w: |||
 [Bd][Bd] [Bd]2 [ce][Bd] [Bd]2 | [GB][Bd][ce][Bd] [Ac][GB] [FA]2 | [Fc][Fc] [GB]2 [GA][GB] [Gc]2 | %15
w: |||
 [EB][EA] [DG]2 [DF]>[DA] [DG]2- | [DG]6 z2 |] %17
w: ||
V:2
 x8 | x8 | [DG][DG] [DG]2 [B,D][B,D]C-[CF] | x8 | x8 | x8 | [DG][DG] [DG]2 [B,D][B,D]C-[CF] | x8 | %8
 x8 | x8 | x8 | x8 | x8 | x8 | x8 | x8 | x8 |] %17
V:3
 B,B, B,2 D>D[K:treble] D2 | DB, D2 DD D2 | B,B, B,2 G,G, G,2 | A,[K:treble]C B,2 D>C B,2 | %4
 B,B, B,2 D>D[K:treble] D2 | DB, D2 DD D2 | B,B, B,2 G,G, G,2 | A,[K:treble]C B,2 D>C B,2 | %8
 DD D2 D>D D2 | DD ^C2 C>D E2 | ^CC D2 DD D2 | DD D2 ^C>C D2 | DD D2 ED D2 | B,DED CB, A,2 | %14
 DD D2 CC E2 | DC[K:bass] B,2 A,>C B,2- | B,6 z2 |] %17
V:4
 G,G, G,2 G,>G, G,2 | G,G, D,2 D,D, G,2 | G,G, G,2 z2 C,2 | G,,C, D,2 D,>D, G,2 | %4
 G,G, G,2 G,>G, G,2 | G,G, D,2 D,D, G,2 | G,G, G,2 z2 C,2 | G,,C, D,2 D,>D, G,2 | %8
 D,D, D,2 D,>D, D,2 | D,D, [A,,A,]2 A,>A, A,2 | A,G, F,2 D,D, G,2 | B,B, A,2 A,>A, D,2 | %12
 G,G, G,2 G,G, G,2 | G,G, G,2 G,G, D,2 | D,D, G,2 G,G, C,2 | C,C, D,2 D,>D, G,2- | G,6 z2 |] %17

